Newaita-dark/apps/24/sublime-merge.svg

<svg height="24" viewBox="0 0 24 24" width="24" xmlns="http://www.w3.org/2000/svg" xmlns:xlink="http://www.w3.org/1999/xlink"><linearGradient id="a" gradientUnits="userSpaceOnUse" x1="11.90739" x2="11.90739" y1="21.02545225" y2="22.01773525002"><stop offset="0" stop-opacity=".27451"/><stop offset="1" stop-opacity="0"/></linearGradient><linearGradient id="b"><stop offset="0" stop-opacity=".313726"/><stop offset=".222222" stop-opacity=".27451"/><stop offset="1" stop-opacity="0"/></linearGradient><radialGradient id="c" cx="450.908936" cy="189.579361" gradientTransform="matrix(.00000013 -.0585994 -.105479 -.00000008 39.097986 47.696499)" gradientUnits="userSpaceOnUse" r="21.166656" xlink:href="#b"/><radialGradient id="d" cx="450.908936" cy="189.579361" gradientTransform="matrix(-.00000013 .0585994 .105479 .00000008 -15.28321 -5.645609)" gradientUnits="userSpaceOnUse" r="21.166656" xlink:href="#b"/><radialGradient id="e" cx="450.908936" cy="189.579361" gradientTransform="matrix(-.00000013 -.0585994 .105479 -.00000008 -15.28321 47.696499)" gradientUnits="userSpaceOnUse" r="21.166656" xlink:href="#b"/><radialGradient id="f" cx="450.908936" cy="189.579361" gradientTransform="matrix(.00000013 .0585994 -.105479 .00000008 39.097985 -5.64561)" gradientUnits="userSpaceOnUse" r="21.166656" xlink:href="#b"/><linearGradient id="g" gradientUnits="userSpaceOnUse" x1="7.93826174998" x2="7.93826174998" y1="21.02545025" y2="2.17207850005"><stop offset="0" stop-color="#424242"/><stop offset="1" stop-color="#616161"/></linearGradient><linearGradient id="h" gradientUnits="userSpaceOnUse" x1="11.90739229681" x2="11.907393" y1="21.02545025" y2="2.17207850005"><stop offset="0" stop-color="#26c6da"/><stop offset="1" stop-color="#4dd0e1"/></linearGradient><linearGradient id="i" gradientTransform="matrix(.0468795 0 0 -.0468795 0 13.119233)" gradientUnits="userSpaceOnUse" x1="253.999985" x2="254" y1="233.5" y2="-168.666656"><stop offset="0" stop-color="#b2ebf2"/><stop offset="1" stop-color="#80deea"/></linearGradient><path d="m4.464844 20.953125h14.882812v1.101563h-14.882812zm0 0" fill="url(#a)"/><path d="m19.347656 21.027344h1.988282v-.996094h-1.988282zm0 0" fill="url(#c)"/><path d="m4.464844 21.027344h-1.984375v.992187h1.984375zm0 0" fill="url(#d)"/><path d="m4.464844 21.027344h-1.984375v-.996094h1.984375zm0 0" fill="url(#e)"/><path d="m19.347656 21.027344h1.988282v.992187h-1.988282zm0 0" fill="url(#f)"/><path d="m3.472656 2.171875h16.867188c.550781 0 .996094.445313.996094.992187v16.867188c0 .550781-.445313.996094-.996094.996094h-16.867188c-.546875 0-.992187-.445313-.992187-.996094v-16.867188c0-.546874.445312-.992187.992187-.992187zm0 0" fill="url(#g)"/><path d="m6.476562 9.273438c-.066406.203124.003907.433593.183594.5625l2.964844 2.074218 2-1.398437c.082031-.058594.179688-.089844.28125-.089844h.40625l-.4375-.308594c-.089844.003907-.175781.035157-.25.085938l-2 1.398437-2.964844-2.074218c-.089844-.0625-.152344-.152344-.183594-.25zm0 0" fill-opacity=".235294"/><path d="m3.472656 2.171875c-.550781 0-.992187.441406-.992187.992187v.125c0-.550781.441406-.992187.992187-.992187h16.867188c.550781 0 .996094.441406.996094.992187v-.125c0-.550781-.445313-.992187-.996094-.992187zm0 0" fill="#e6e6e6" fill-opacity=".392157"/><path d="m3.472656 21.027344c-.550781 0-.992187-.445313-.992187-.996094v-.121094c0 .546875.441406.992188.992187.992188h16.867188c.550781 0 .996094-.445313.996094-.992188v.121094c0 .550781-.445313.996094-.996094.996094zm0 0" fill-opacity=".196078"/><path d="m74.076259-168.671091h359.798975c11.748878 0 21.247971 9.499093 21.247971 21.164646v359.798974c0 11.748878-9.499093 21.247971-21.247971 21.247971h-359.798975c-11.665552 0-21.164645-9.499093-21.164645-21.247971v-359.798974c0-11.665553 9.499093-21.164646 21.164645-21.164646zm0 0" fill="none" stroke="#212121" stroke-linecap="round" stroke-width="3" transform="matrix(.0468795 0 0 .0468795 0 10.079087)"/><path d="m11.90625 10.109375c-.101562 0-.199219.03125-.28125.089844l-4.964844 3.472656c-.21875.15625-.277344.457031-.125.683594l.992188 1.488281c.152344.230469.46875.289062.695312.128906l4.089844-2.886718h3.5625c.132812 0 .257812-.050782.351562-.144532l.992188-.992187c.195312-.195313.195312-.507813 0-.699219l-.992188-.992188c-.09375-.09375-.21875-.148437-.351562-.148437zm0 0" fill="url(#h)"/><path d="m7.945312 7.136719c-.164062-.003907-.324218.074219-.417968.21875l-.992188 1.488281c-.152344.222656-.09375.527344.125.679688l2.964844 2.074218 2-1.398437c.082031-.058594.179688-.089844.28125-.089844h.40625l-4.089844-2.882813c-.085937-.0625-.183594-.089843-.277344-.089843zm0 0" fill="url(#i)"/><path d="m11.90625 10.109375c-.101562 0-.199219.03125-.28125.089844l-4.964844 3.472656c-.171875.125-.242187.335937-.195312.53125.03125-.109375.097656-.210937.195312-.28125l4.964844-3.472656c.082031-.058594.179688-.089844.28125-.089844h3.96875c.132812 0 .257812.050781.351562.144531l.992188.992188c.066406.066406.109375.144531.128906.226562.042969-.164062 0-.34375-.128906-.472656l-.992188-.992188c-.09375-.09375-.21875-.148437-.351562-.148437zm0 0" fill="#fff" fill-opacity=".392157"/><path d="m17.328125 11.785156c-.023437.058594-.0625.117188-.109375.164063l-.992188.992187c-.09375.09375-.21875.144532-.351562.144532h-3.5625l-4.089844 2.886718c-.226562.160156-.542968.101563-.695312-.128906l-.992188-1.488281c-.019531-.027344-.035156-.058594-.046875-.089844-.0625.148437-.046875.320313.046875.460937l.992188 1.488282c.152344.234375.46875.292968.695312.128906l4.089844-2.882812h3.5625c.132812 0 .257812-.054688.351562-.148438l.992188-.992188c.144531-.144531.179688-.355468.109375-.535156zm0 0" fill-opacity=".235294"/><path d="m7.945312 7.136719c-.164062-.003907-.324218.074219-.417968.21875l-.992188 1.488281c-.082031.121094-.101562.265625-.070312.398438.015625-.054688.039062-.105469.070312-.152344l.992188-1.488282c.09375-.144531.253906-.222656.417968-.21875.09375 0 .191407.027344.277344.089844l3.738282 2.636719h.351562l-4.089844-2.882813c-.085937-.0625-.183594-.089843-.277344-.089843zm0 0" fill="#fff" fill-opacity=".392157"/><g fill="none" stroke="#212121" stroke-linecap="round" stroke-linejoin="round"><path d="m253.975747.646073c-2.16646 0-4.249595.666604-5.999428 1.916484l-105.906553 74.07626c-4.666221 3.333015-5.916101 9.749069-2.666412 14.58194l21.164646 31.746969c3.24969 4.916197 9.999045 6.166078 14.831917 2.749737l87.241669-61.577453h75.992743c2.833062 0 5.499475-1.08323 7.499284-3.083039l21.164645-21.164645c4.166269-4.166269 4.166269-10.832299 0-14.915243l-21.164645-21.164645c-1.999809-1.999809-4.666222-3.166365-7.499284-3.166365zm0 0" stroke-width="3" transform="matrix(.0468795 0 0 .0468795 0 10.079087)"/><path d="m640.568784 575.378155c-13.227084-.31493-26.139238 5.983681-33.697572 17.636112l-79.992365 119.988548c-12.282292 17.951043-7.558334 42.515627 10.077778 54.79792l239.032305 167.228134 161.244453-112.745145c6.613542-4.723959 14.486806-7.243403 22.675001-7.243403h32.752779l-329.732309-232.418763c-6.928472-5.038889-14.801737-7.243403-22.36007-7.243403zm0 0" stroke-width="11.338583" transform="scale(.0124035)"/></g></svg>

<?xml version="1.0" encoding="UTF-8"?>
<svg xmlns="http://www.w3.org/2000/svg" xmlns:xlink="http://www.w3.org/1999/xlink" width="24px" height="24px" viewBox="0 0 24 24" version="1.1">
<defs>
<linearGradient id="linear0" gradientUnits="userSpaceOnUse" x1="254" y1="233.5" x2="254" y2="254.666672" gradientTransform="matrix(0.0468795,0,0,0.0468795,-0.0000028613,10.079089)">
<stop offset="0" style="stop-color:rgb(0%,0%,0%);stop-opacity:0.27451;"/>
<stop offset="1" style="stop-color:rgb(0%,0%,0%);stop-opacity:0;"/>
</linearGradient>
<radialGradient id="radial0" gradientUnits="userSpaceOnUse" cx="450.908936" cy="189.579361" fx="450.908936" fy="189.579361" r="21.166656" gradientTransform="matrix(0.000000130628,-0.0585994,-0.105479,-0.0000000761539,39.097986,47.696499)">
<stop offset="0" style="stop-color:rgb(0%,0%,0%);stop-opacity:0.313726;"/>
<stop offset="0.222222" style="stop-color:rgb(0%,0%,0%);stop-opacity:0.27451;"/>
<stop offset="1" style="stop-color:rgb(0%,0%,0%);stop-opacity:0;"/>
</radialGradient>
<radialGradient id="radial1" gradientUnits="userSpaceOnUse" cx="450.908936" cy="189.579361" fx="450.908936" fy="189.579361" r="21.166656" gradientTransform="matrix(-0.000000130628,0.0585994,0.105479,0.0000000761539,-15.28321,-5.645609)">
<stop offset="0" style="stop-color:rgb(0%,0%,0%);stop-opacity:0.313726;"/>
<stop offset="0.222222" style="stop-color:rgb(0%,0%,0%);stop-opacity:0.27451;"/>
<stop offset="1" style="stop-color:rgb(0%,0%,0%);stop-opacity:0;"/>
</radialGradient>
<radialGradient id="radial2" gradientUnits="userSpaceOnUse" cx="450.908936" cy="189.579361" fx="450.908936" fy="189.579361" r="21.166656" gradientTransform="matrix(-0.000000130628,-0.0585994,0.105479,-0.0000000761539,-15.28321,47.696499)">
<stop offset="0" style="stop-color:rgb(0%,0%,0%);stop-opacity:0.313726;"/>
<stop offset="0.222222" style="stop-color:rgb(0%,0%,0%);stop-opacity:0.27451;"/>
<stop offset="1" style="stop-color:rgb(0%,0%,0%);stop-opacity:0;"/>
</radialGradient>
<radialGradient id="radial3" gradientUnits="userSpaceOnUse" cx="450.908936" cy="189.579361" fx="450.908936" fy="189.579361" r="21.166656" gradientTransform="matrix(0.000000130628,0.0585994,-0.105479,0.0000000761539,39.097985,-5.64561)">
<stop offset="0" style="stop-color:rgb(0%,0%,0%);stop-opacity:0.313726;"/>
<stop offset="0.222222" style="stop-color:rgb(0%,0%,0%);stop-opacity:0.27451;"/>
<stop offset="1" style="stop-color:rgb(0%,0%,0%);stop-opacity:0;"/>
</radialGradient>
<linearGradient id="linear1" gradientUnits="userSpaceOnUse" x1="169.333328" y1="233.5" x2="169.333328" y2="-168.666656" gradientTransform="matrix(0.0468795,0,0,0.0468795,0,10.079087)">
<stop offset="0" style="stop-color:rgb(25.882354%,25.882354%,25.882354%);stop-opacity:1;"/>
<stop offset="1" style="stop-color:rgb(38.039216%,38.039216%,38.039216%);stop-opacity:1;"/>
</linearGradient>
<linearGradient id="linear2" gradientUnits="userSpaceOnUse" x1="253.999985" y1="233.5" x2="254" y2="-168.666656" gradientTransform="matrix(0.0468795,0,0,0.0468795,0,10.079087)">
<stop offset="0" style="stop-color:rgb(14.901961%,77.64706%,85.490197%);stop-opacity:1;"/>
<stop offset="1" style="stop-color:rgb(30.19608%,81.568629%,88.235295%);stop-opacity:1;"/>
</linearGradient>
<linearGradient id="linear3" gradientUnits="userSpaceOnUse" x1="253.999985" y1="233.5" x2="254" y2="-168.666656" gradientTransform="matrix(0.0468795,0,0,-0.0468795,0,13.119233)">
<stop offset="0" style="stop-color:rgb(69.803923%,92.156863%,94.901961%);stop-opacity:1;"/>
<stop offset="1" style="stop-color:rgb(50.196081%,87.058824%,91.764706%);stop-opacity:1;"/>
</linearGradient>
</defs>
<g id="surface1">
<path style=" stroke:none;fill-rule:nonzero;fill:url(#linear0);" d="M 4.464844 20.953125 L 19.347656 20.953125 L 19.347656 22.054688 L 4.464844 22.054688 Z M 4.464844 20.953125 "/>
<path style=" stroke:none;fill-rule:nonzero;fill:url(#radial0);" d="M 19.347656 21.027344 L 21.335938 21.027344 L 21.335938 20.03125 L 19.347656 20.03125 Z M 19.347656 21.027344 "/>
<path style=" stroke:none;fill-rule:nonzero;fill:url(#radial1);" d="M 4.464844 21.027344 L 2.480469 21.027344 L 2.480469 22.019531 L 4.464844 22.019531 Z M 4.464844 21.027344 "/>
<path style=" stroke:none;fill-rule:nonzero;fill:url(#radial2);" d="M 4.464844 21.027344 L 2.480469 21.027344 L 2.480469 20.03125 L 4.464844 20.03125 Z M 4.464844 21.027344 "/>
<path style=" stroke:none;fill-rule:nonzero;fill:url(#radial3);" d="M 19.347656 21.027344 L 21.335938 21.027344 L 21.335938 22.019531 L 19.347656 22.019531 Z M 19.347656 21.027344 "/>
<path style=" stroke:none;fill-rule:nonzero;fill:url(#linear1);" d="M 3.472656 2.171875 L 20.339844 2.171875 C 20.890625 2.171875 21.335938 2.617188 21.335938 3.164062 L 21.335938 20.03125 C 21.335938 20.582031 20.890625 21.027344 20.339844 21.027344 L 3.472656 21.027344 C 2.925781 21.027344 2.480469 20.582031 2.480469 20.03125 L 2.480469 3.164062 C 2.480469 2.617188 2.925781 2.171875 3.472656 2.171875 Z M 3.472656 2.171875 "/>
<path style=" stroke:none;fill-rule:nonzero;fill:rgb(0%,0%,0%);fill-opacity:0.235294;" d="M 6.476562 9.273438 C 6.410156 9.476562 6.480469 9.707031 6.660156 9.835938 L 9.625 11.910156 L 11.625 10.511719 C 11.707031 10.453125 11.804688 10.421875 11.90625 10.421875 L 12.3125 10.421875 L 11.875 10.113281 C 11.785156 10.117188 11.699219 10.148438 11.625 10.199219 L 9.625 11.597656 L 6.660156 9.523438 C 6.570312 9.460938 6.507812 9.371094 6.476562 9.273438 Z M 6.476562 9.273438 "/>
<path style=" stroke:none;fill-rule:nonzero;fill:rgb(90.196079%,90.196079%,90.196079%);fill-opacity:0.392157;" d="M 3.472656 2.171875 C 2.921875 2.171875 2.480469 2.613281 2.480469 3.164062 L 2.480469 3.289062 C 2.480469 2.738281 2.921875 2.296875 3.472656 2.296875 L 20.339844 2.296875 C 20.890625 2.296875 21.335938 2.738281 21.335938 3.289062 L 21.335938 3.164062 C 21.335938 2.613281 20.890625 2.171875 20.339844 2.171875 Z M 3.472656 2.171875 "/>
<path style=" stroke:none;fill-rule:nonzero;fill:rgb(0%,0%,0%);fill-opacity:0.196078;" d="M 3.472656 21.027344 C 2.921875 21.027344 2.480469 20.582031 2.480469 20.03125 L 2.480469 19.910156 C 2.480469 20.457031 2.921875 20.902344 3.472656 20.902344 L 20.339844 20.902344 C 20.890625 20.902344 21.335938 20.457031 21.335938 19.910156 L 21.335938 20.03125 C 21.335938 20.582031 20.890625 21.027344 20.339844 21.027344 Z M 3.472656 21.027344 "/>
<path style="fill:none;stroke-width:3;stroke-linecap:round;stroke-linejoin:miter;stroke:rgb(12.941177%,12.941177%,12.941177%);stroke-opacity:1;stroke-miterlimit:4;" d="M 74.076259 -168.671091 L 433.875234 -168.671091 C 445.624112 -168.671091 455.123205 -159.171998 455.123205 -147.506445 L 455.123205 212.292529 C 455.123205 224.041407 445.624112 233.5405 433.875234 233.5405 L 74.076259 233.5405 C 62.410707 233.5405 52.911614 224.041407 52.911614 212.292529 L 52.911614 -147.506445 C 52.911614 -159.171998 62.410707 -168.671091 74.076259 -168.671091 Z M 74.076259 -168.671091 " transform="matrix(0.0468795,0,0,0.0468795,0,10.079087)"/>
<path style=" stroke:none;fill-rule:nonzero;fill:url(#linear2);" d="M 11.90625 10.109375 C 11.804688 10.109375 11.707031 10.140625 11.625 10.199219 L 6.660156 13.671875 C 6.441406 13.828125 6.382812 14.128906 6.535156 14.355469 L 7.527344 15.84375 C 7.679688 16.074219 7.996094 16.132812 8.222656 15.972656 L 12.3125 13.085938 L 15.875 13.085938 C 16.007812 13.085938 16.132812 13.035156 16.226562 12.941406 L 17.21875 11.949219 C 17.414062 11.753906 17.414062 11.441406 17.21875 11.25 L 16.226562 10.257812 C 16.132812 10.164062 16.007812 10.109375 15.875 10.109375 Z M 11.90625 10.109375 "/>
<path style=" stroke:none;fill-rule:nonzero;fill:url(#linear3);" d="M 7.945312 7.136719 C 7.78125 7.132812 7.621094 7.210938 7.527344 7.355469 L 6.535156 8.84375 C 6.382812 9.066406 6.441406 9.371094 6.660156 9.523438 L 9.625 11.597656 L 11.625 10.199219 C 11.707031 10.140625 11.804688 10.109375 11.90625 10.109375 L 12.3125 10.109375 L 8.222656 7.226562 C 8.136719 7.164062 8.039062 7.136719 7.945312 7.136719 Z M 7.945312 7.136719 "/>
<path style=" stroke:none;fill-rule:nonzero;fill:rgb(100%,100%,100%);fill-opacity:0.392157;" d="M 11.90625 10.109375 C 11.804688 10.109375 11.707031 10.140625 11.625 10.199219 L 6.660156 13.671875 C 6.488281 13.796875 6.417969 14.007812 6.464844 14.203125 C 6.496094 14.09375 6.5625 13.992188 6.660156 13.921875 L 11.625 10.449219 C 11.707031 10.390625 11.804688 10.359375 11.90625 10.359375 L 15.875 10.359375 C 16.007812 10.359375 16.132812 10.410156 16.226562 10.503906 L 17.21875 11.496094 C 17.285156 11.5625 17.328125 11.640625 17.347656 11.722656 C 17.390625 11.558594 17.347656 11.378906 17.21875 11.25 L 16.226562 10.257812 C 16.132812 10.164062 16.007812 10.109375 15.875 10.109375 Z M 11.90625 10.109375 "/>
<path style=" stroke:none;fill-rule:nonzero;fill:rgb(0%,0%,0%);fill-opacity:0.235294;" d="M 17.328125 11.785156 C 17.304688 11.84375 17.265625 11.902344 17.21875 11.949219 L 16.226562 12.941406 C 16.132812 13.035156 16.007812 13.085938 15.875 13.085938 L 12.3125 13.085938 L 8.222656 15.972656 C 7.996094 16.132812 7.679688 16.074219 7.527344 15.84375 L 6.535156 14.355469 C 6.515625 14.328125 6.5 14.296875 6.488281 14.265625 C 6.425781 14.414062 6.441406 14.585938 6.535156 14.726562 L 7.527344 16.214844 C 7.679688 16.449219 7.996094 16.507812 8.222656 16.34375 L 12.3125 13.460938 L 15.875 13.460938 C 16.007812 13.460938 16.132812 13.40625 16.226562 13.3125 L 17.21875 12.320312 C 17.363281 12.175781 17.398438 11.964844 17.328125 11.785156 Z M 17.328125 11.785156 "/>
<path style=" stroke:none;fill-rule:nonzero;fill:rgb(100%,100%,100%);fill-opacity:0.392157;" d="M 7.945312 7.136719 C 7.78125 7.132812 7.621094 7.210938 7.527344 7.355469 L 6.535156 8.84375 C 6.453125 8.964844 6.433594 9.109375 6.464844 9.242188 C 6.480469 9.1875 6.503906 9.136719 6.535156 9.089844 L 7.527344 7.601562 C 7.621094 7.457031 7.78125 7.378906 7.945312 7.382812 C 8.039062 7.382812 8.136719 7.410156 8.222656 7.472656 L 11.960938 10.109375 L 12.3125 10.109375 L 8.222656 7.226562 C 8.136719 7.164062 8.039062 7.136719 7.945312 7.136719 Z M 7.945312 7.136719 "/>
<path style="fill:none;stroke-width:3;stroke-linecap:round;stroke-linejoin:round;stroke:rgb(12.941177%,12.941177%,12.941177%);stroke-opacity:1;stroke-miterlimit:4;" d="M 253.975747 0.646073 C 251.809287 0.646073 249.726152 1.312677 247.976319 2.562557 L 142.069766 76.638817 C 137.403545 79.971832 136.153665 86.387886 139.403354 91.220757 L 160.568 122.967726 C 163.81769 127.883923 170.567045 129.133804 175.399917 125.717463 L 262.641586 64.14001 L 338.634329 64.14001 C 341.467391 64.14001 344.133804 63.05678 346.133613 61.056971 L 367.298258 39.892326 C 371.464527 35.726057 371.464527 29.060027 367.298258 24.977083 L 346.133613 3.812438 C 344.133804 1.812629 341.467391 0.646073 338.634329 0.646073 Z M 253.975747 0.646073 " transform="matrix(0.0468795,0,0,0.0468795,0,10.079087)"/>
<path style="fill:none;stroke-width:11.338583;stroke-linecap:round;stroke-linejoin:round;stroke:rgb(12.941177%,12.941177%,12.941177%);stroke-opacity:1;stroke-miterlimit:4;" d="M 640.568784 575.378155 C 627.3417 575.063225 614.429546 581.361836 606.871212 593.014267 L 526.878847 713.002815 C 514.596555 730.953858 519.320513 755.518442 536.956625 767.800735 L 775.98893 935.028869 L 937.233383 822.283724 C 943.846925 817.559765 951.720189 815.040321 959.908384 815.040321 L 992.661163 815.040321 L 662.928854 582.621558 C 656.000382 577.582669 648.127117 575.378155 640.568784 575.378155 Z M 640.568784 575.378155 " transform="matrix(0.0124035,0,0,0.0124035,0,0)"/>
</g>
</svg>
